img/link-icon-youtube.svg

<svg width="650" height="650" fill="none" xmlns="http://www.w3.org/2000/svg"><path fill="red" d="M0 0H650V650H0z"/><g clip-path="url(#clip0_260_531)"><path d="M549.62 211.31a59.083 59.083 0 0 0-41.595-41.597c-36.473-9.947-183.263-9.947-183.263-9.947s-146.798.301-183.271 10.248a59.08 59.08 0 0 0-41.595 41.598c-11.032 64.805-15.312 163.553.303 225.766a59.081 59.081 0 0 0 41.595 41.597c36.473 9.947 183.267 9.947 183.267 9.947s146.792 0 183.263-9.947a59.078 59.078 0 0 0 41.597-41.597c11.636-64.897 15.222-163.584-.301-226.068z" fill="#fff"/><path d="M278.041 394.875l121.774-70.533-121.774-70.533v141.066z" fill="red"/></g><defs><clipPath id="clip0_260_531"><path fill="#fff" transform="translate(90 159.766)" d="M0 0H470V330.469H0z"/></clipPath></defs></svg>

<svg width="650" height="650" viewBox="0 0 650 650" fill="none" xmlns="http://www.w3.org/2000/svg">
<rect width="650" height="650" fill="#FF0000"/>
<g clip-path="url(#clip0_260_531)">
<path d="M549.62 211.31C546.924 201.347 541.665 192.264 534.368 184.966C527.07 177.668 517.987 172.409 508.025 169.713C471.552 159.766 324.762 159.766 324.762 159.766C324.762 159.766 177.964 160.067 141.491 170.014C131.528 172.71 122.446 177.97 115.148 185.268C107.85 192.567 102.592 201.65 99.8961 211.612C88.8639 276.417 84.5843 375.165 100.199 437.378C102.895 447.34 108.153 456.423 115.451 463.721C122.749 471.019 131.831 476.278 141.794 478.975C178.267 488.922 325.061 488.922 325.061 488.922C325.061 488.922 471.853 488.922 508.324 478.975C518.287 476.279 527.37 471.02 534.668 463.721C541.966 456.423 547.225 447.341 549.921 437.378C561.557 372.481 565.143 273.794 549.62 211.31Z" fill="white"/>
<path d="M278.041 394.875L399.815 324.342L278.041 253.809V394.875Z" fill="#FF0000"/>
</g>
<defs>
<clipPath id="clip0_260_531">
<rect width="470" height="330.469" fill="white" transform="translate(90 159.766)"/>
</clipPath>
</defs>
</svg>
